!! 00000] TT[WS
!!!OTL: Song qinglang
!!!ARE: Asia, China,ÿShanxi Xiangfen
!! Ethnic Group: Han
!! WI, 139 (2)
!!!SCT: J0170
!!!YEM: Copyright 1995, estate of Helmut Schaffrath.
**kern
*ICvox
*Ivox
*M2/4
*k[b-]
*F:
{8dd
8ff
8cc
8cc
=1
8dd
8ff
8cc
8cc
=2
8dd
8ff
8cc
8a
=3
4g
4g}
=4
{8g
8g
4cc
=5
8g
16a
16g
8f
8e
=6
8g
8g
8f
8d
=7
4c
4c}
=8
{8f
8d
4f
=9
8g
8cc
8g
8cc
=10
8g
8cc
8g
8f
=11
4e
4e}
=12
{8g
8g
8cc
8cc
=13
8ff
8ff
8dd
8cc
=14
16f
16f
16b-
16a
4g
=15
8f
8d
8f
8d
=16
4c
4c}
==
!!!AGN: Xiaodiao. Qingge
!!!ONB: ESAC (Essen Associative Code) Database: CHINA
!!!AMT: simple duple
!!!AIN: vox
!!!EED: Helmut Schaffrath
!!!EEV: 1.0
*-
